X:3163
T:Juice of Barley
O:england
M:6/8
L:1/8
B:The Round Band Book of Playford
K:Am
"Am"A2A "F"e2d | "G"efg "C"G2G | "F"A2A "Dm"e2c | "Am"A3 c3 | \
"F"A2A "G"e2d | "C"efg G2G | "F"A2A "G"e2c | "Am"A3 c3 |: \
"C"c2c c2B/2c/2 | "G" d2d d2d | "C"e2e "F"a2g | "C"e3 "G"g3 | \
"Am"c2c "F"c2B/2c/2 | "G"d2d "F"d>ef | "F"e>dc "G"BcG | "Am"A3 c3 :|
